flaticon/gastronomy/spatula.svg

<svg xmlns="http://www.w3.org/2000/svg" width="32" height="32" viewBox="0 0 24 24">
    <path d="M12.40625 14.238281C12.40625 14.460938 12.226562 14.644531 12 14.644531 11.773438 14.644531 11.59375 14.460938 11.59375 14.238281 11.59375 14.011719 11.773438 13.832031 12 13.832031 12.226562 13.832031 12.40625 14.011719 12.40625 14.238281zM12.40625 15.863281C12.40625 16.089844 12.226562 16.269531 12 16.269531 11.773438 16.269531 11.59375 16.089844 11.59375 15.863281 11.59375 15.640625 11.773438 15.457031 12 15.457031 12.226562 15.457031 12.40625 15.640625 12.40625 15.863281zM12.40625 15.863281"/>
    <path d="M 16.097656 0.382812 C 15.886719 0.140625 15.585938 0 15.265625 0 L 8.734375 0 C 8.414062 0 8.113281 0.140625 7.902344 0.382812 C 7.695312 0.625 7.605469 0.945312 7.65625 1.261719 L 9.066406 10.066406 C 9.152344 10.597656 9.601562 10.984375 10.140625 10.984375 L 11.59375 10.984375 L 11.59375 11.855469 C 10.894531 12.035156 10.371094 12.667969 10.371094 13.421875 L 10.371094 22.371094 C 10.371094 23.269531 11.101562 24 12 24 C 12.898438 24 13.628906 23.269531 13.628906 22.371094 L 13.628906 13.421875 C 13.628906 12.667969 13.105469 12.035156 12.40625 11.855469 L 12.40625 10.984375 L 13.859375 10.984375 C 14.394531 10.984375 14.847656 10.597656 14.933594 10.066406 L 16.34375 1.261719 C 16.394531 0.945312 16.304688 0.625 16.097656 0.382812 Z M 12.8125 13.421875 L 12.8125 22.371094 C 12.8125 22.820312 12.449219 23.1875 12 23.1875 C 11.550781 23.1875 11.1875 22.820312 11.1875 22.371094 L 11.1875 13.421875 C 11.1875 12.976562 11.550781 12.609375 12 12.609375 C 12.449219 12.609375 12.8125 12.976562 12.8125 13.421875 Z M 15.539062 1.132812 L 14.132812 9.9375 C 14.109375 10.070312 13.996094 10.167969 13.859375 10.167969 L 10.140625 10.167969 C 10.003906 10.167969 9.890625 10.070312 9.867188 9.9375 L 8.460938 1.132812 C 8.441406 1.023438 8.492188 0.945312 8.523438 0.910156 C 8.554688 0.875 8.621094 0.8125 8.734375 0.8125 L 15.265625 0.8125 C 15.378906 0.8125 15.445312 0.875 15.476562 0.910156 C 15.507812 0.945312 15.558594 1.023438 15.539062 1.132812 Z M 15.539062 1.132812"/>
    <path d="M12 2.035156C11.773438 2.035156 11.59375 2.214844 11.59375 2.441406L11.59375 8.542969C11.59375 8.765625 11.773438 8.949219 12 8.949219 12.226562 8.949219 12.40625 8.765625 12.40625 8.542969L12.40625 2.441406C12.40625 2.214844 12.226562 2.035156 12 2.035156zM14.070312 2.0625C13.839844 2.039062 13.640625 2.191406 13.613281 2.414062L12.832031 8.464844C12.804688 8.6875 12.960938 8.890625 13.183594 8.921875 13.203125 8.921875 13.222656 8.925781 13.238281 8.925781 13.441406 8.925781 13.613281 8.773438 13.640625 8.570312L14.421875 2.515625C14.449219 2.296875 14.292969 2.089844 14.070312 2.0625zM9.949219 2.0625C9.726562 2.089844 9.566406 2.292969 9.597656 2.515625L10.375 8.570312C10.402344 8.773438 10.578125 8.925781 10.78125 8.925781 10.796875 8.925781 10.8125 8.921875 10.832031 8.921875 11.054688 8.890625 11.210938 8.6875 11.183594 8.464844L10.402344 2.414062C10.375 2.191406 10.179688 2.039062 9.949219 2.0625zM9.949219 2.0625"/>
</svg>

<svg xmlns="http://www.w3.org/2000/svg" width="32" height="32" viewBox="0 0 24 24">
    <path d="M12.406 14.238a.406.406 0 1 1-.812 0 .406.406 0 0 1 .812 0zm0 0M12.406 15.863c0 .227-.18.407-.406.407a.406.406 0 1 1 .406-.406zm0 0"/>
    <path d="M16.098.383A1.102 1.102 0 0 0 15.266 0H8.734c-.32 0-.62.14-.832.383a1.085 1.085 0 0 0-.246.879l1.41 8.804c.086.532.536.918 1.075.918h1.453v.871c-.7.18-1.223.813-1.223 1.567v8.95c0 .898.73 1.628 1.629 1.628a1.63 1.63 0 0 0 1.629-1.629v-8.95c0-.753-.524-1.386-1.223-1.566v-.87h1.453c.536 0 .989-.387 1.075-.919l1.41-8.804c.05-.317-.04-.637-.246-.88zm-3.285 13.039v8.95c0 .448-.364.816-.813.816a.815.815 0 0 1-.813-.817v-8.95c0-.444.364-.812.813-.812.45 0 .813.368.813.813zm2.726-12.29l-1.406 8.806a.277.277 0 0 1-.274.23h-3.718a.277.277 0 0 1-.274-.23L8.461 1.133A.263.263 0 0 1 8.523.91a.275.275 0 0 1 .211-.098h6.532c.113 0 .18.063.21.098a.263.263 0 0 1 .063.223zm0 0"/>
    <path d="M12 2.035a.403.403 0 0 0-.406.406v6.102a.406.406 0 1 0 .812 0V2.441A.403.403 0 0 0 12 2.035zm0 0M14.07 2.063a.407.407 0 0 0-.457.351l-.781 6.05a.411.411 0 0 0 .352.458c.02 0 .039.004.054.004a.408.408 0 0 0 .403-.356l.78-6.054a.407.407 0 0 0-.35-.454zm0 0M9.95 2.063a.402.402 0 0 0-.352.453l.777 6.054a.412.412 0 0 0 .406.356c.016 0 .031-.004.051-.004a.411.411 0 0 0 .352-.457l-.782-6.05a.404.404 0 0 0-.453-.353zm0 0"/>
</svg>
